img/icon4.svg

<svg width="40" height="40" viewBox="0 0 40 40" fill="none" xmlns="http://www.w3.org/2000/svg">
<g clip-path="url(#clip0)">
<path d="M39.7528 14.8377L33.6041 10.1732C33.6025 10.1719 33.6007 10.171 33.5991 10.1698L36.4365 7.61617L37.9341 9.11374C38.3195 9.49929 39.0005 9.21656 39.0005 8.67202V2.67484C39.0005 2.32984 38.7208 2.05015 38.3758 2.05015H32.3786C31.8341 2.05015 31.5513 2.73109 31.9369 3.11656L33.7824 4.9621L30.5589 7.86312L20.4286 0.177965C20.2054 0.0085901 19.8966 0.0085901 19.6735 0.177965L12.0132 5.98921V3.96578H12.7212C13.0662 3.96578 13.3459 3.68609 13.3459 3.34109V0.675699C13.3459 0.330699 13.0662 0.051012 12.7212 0.051012H3.39226C3.04726 0.051012 2.76758 0.330699 2.76758 0.675699V3.34109C2.76758 3.68609 3.04726 3.96578 3.39226 3.96578H4.10023V11.9922L0.349215 14.8377C0.135465 14.9998 0.0491369 15.2804 0.134684 15.5346C0.220231 15.7889 0.458512 15.9601 0.726715 15.9601H3.76695V23.0757L0.210074 26.1937C-0.0575819 26.4283 -0.0715662 26.8535 0.180153 27.1051L1.95101 28.876C2.18062 29.1056 2.56031 29.1182 2.80461 28.904L3.76719 28.0601V30.6615C3.76719 31.0065 4.04687 31.2862 4.39187 31.2862C4.73687 31.2862 5.01656 31.0065 5.01656 30.6615V26.9689C5.01656 26.9676 5.0164 26.9663 5.0164 26.965L12.2198 20.6496L12.9787 21.4084C13.6902 22.1199 14.8284 22.1447 15.5703 21.4648L18.8467 18.4615C19.101 18.2283 19.1183 17.8332 18.8852 17.5788C18.652 17.3244 18.2569 17.3073 18.0025 17.5404L14.7261 20.5438C14.4787 20.7705 14.0994 20.7622 13.8623 20.525L12.6898 19.3525C12.457 19.1198 12.0837 19.1074 11.8362 19.3245L2.42078 27.5789L1.53539 26.6935L11.8934 17.6141C12.14 17.3983 12.5148 17.4107 12.7465 17.6426L13.8997 18.7957C14.1362 19.0322 14.517 19.0405 14.7635 18.8145L21.8779 12.293C22.1253 12.0664 22.5046 12.0747 22.7417 12.3119L24.5689 14.1391C24.8038 14.3741 25.1816 14.384 25.4285 14.1616L35.1077 5.45023C35.3697 5.21437 35.381 4.79359 35.1315 4.54414L33.8867 3.29945H37.7511V7.16374L36.9009 6.31367C36.666 6.07874 36.2883 6.06874 36.0413 6.29109L25.3834 15.8832C25.1363 16.1055 24.7588 16.0956 24.5237 15.8606L22.7041 14.0412C22.4677 13.8046 22.0869 13.7964 21.8403 14.0223L20.6284 15.1331C20.3741 15.3662 20.3569 15.7614 20.5901 16.0158C20.8232 16.2701 21.2184 16.2873 21.4727 16.0541L22.2436 15.3475L23.6402 16.744C24.3452 17.4491 25.478 17.4789 26.2191 16.8119L32.689 10.9891C32.7291 11.0568 37.5181 14.7109 37.5181 14.7109H35.7103C35.3653 14.7109 35.0856 14.9905 35.0856 15.3355V38.6995H5.01648V34.6597C5.01648 34.3147 4.73679 34.0351 4.39179 34.0351C4.04679 34.0351 3.76711 34.3147 3.76711 34.6597V39.3242C3.76711 39.6692 4.04679 39.9489 4.39179 39.9489H35.7104C36.0554 39.9489 36.3351 39.6692 36.3351 39.3242V15.9603H39.3753C39.6436 15.9603 39.8819 15.7891 39.9674 15.5348C40.0529 15.2804 39.9665 14.9998 39.7528 14.8377ZM4.01695 2.7164V1.30039H12.0965V2.7164H4.01695ZM10.7637 3.96578V6.93702L5.34961 11.0443V3.96578H10.7637ZM25.0333 12.8362L23.6252 11.4282C22.9137 10.7166 21.7753 10.6919 21.0335 11.3718L14.36 17.4891L13.6298 16.759C12.9346 16.0636 11.8102 16.0262 11.0701 16.674L5.0164 21.9805V15.3354C5.0164 14.9904 4.73672 14.7107 4.39172 14.7107H2.5839L20.051 1.45976L29.6134 8.71398L25.0333 12.8362Z" fill="white"/>
<path d="M20.051 22.7069C16.3998 22.7069 13.4291 25.6776 13.4291 29.3288C13.4291 32.9801 16.3998 35.9507 20.051 35.9507C23.7023 35.9507 26.6729 32.9801 26.6729 29.3288C26.6729 25.6776 23.7023 22.7069 20.051 22.7069ZM20.051 34.7013C17.0887 34.7013 14.6785 32.2912 14.6785 29.3288C14.6785 26.3664 17.0886 23.9563 20.051 23.9563C23.0134 23.9563 25.4235 26.3664 25.4235 29.3288C25.4235 32.2912 23.0134 34.7013 20.051 34.7013Z" fill="#FCDB50"/>
<path d="M21.2172 28.7041H20.6758V26.955H22.0502C22.3952 26.955 22.6749 26.6753 22.6749 26.3303C22.6749 25.9853 22.3952 25.7056 22.0502 25.7056H20.6758V24.9976C20.6758 24.6526 20.3961 24.373 20.0511 24.373C19.7061 24.373 19.4264 24.6526 19.4264 24.9976V25.7056H18.885C18.0814 25.7056 17.4274 26.3595 17.4274 27.1633V28.496C17.4274 29.2997 18.0813 29.9537 18.885 29.9537H19.4264V31.7028H18.0521C17.7071 31.7028 17.4274 31.9825 17.4274 32.3275C17.4274 32.6725 17.7071 32.9522 18.0521 32.9522H19.4264V33.6601C19.4264 34.0051 19.7061 34.2848 20.0511 34.2848C20.3961 34.2848 20.6758 34.0051 20.6758 33.6601V32.9522H21.2172C22.0209 32.9522 22.6749 32.2983 22.6749 31.4945V30.1618C22.6748 29.358 22.0209 28.7041 21.2172 28.7041ZM19.4264 28.7041H18.8849C18.7702 28.7041 18.6767 28.6107 18.6767 28.4959V27.1632C18.6767 27.0484 18.7702 26.955 18.8849 26.955H19.4264V28.7041ZM21.4254 31.4945C21.4254 31.6093 21.332 31.7027 21.2172 31.7027H20.6758V29.9536H21.2172C21.332 29.9536 21.4254 30.047 21.4254 30.1618V31.4945Z" fill="#FCDB50"/>
</g>
<defs>
<clipPath id="clip0">
<rect width="40" height="40" fill="white"/>
</clipPath>
</defs>
</svg>

<svg width="40" height="40" fill="none" xmlns="http://www.w3.org/2000/svg"><g clip-path="url(#clip0)"><path d="M39.753 14.838l-6.149-4.665-.005-.003 2.838-2.554 1.497 1.498c.386.385 1.067.103 1.067-.442V2.675a.625.625 0 00-.625-.625h-5.997c-.545 0-.828.681-.442 1.067l1.845 1.845-3.223 2.901L20.429.178a.625.625 0 00-.755 0l-7.66 5.811V3.966h.707c.345 0 .625-.28.625-.625V.676A.625.625 0 0012.72.05H3.392a.625.625 0 00-.624.625V3.34c0 .345.28.625.624.625H4.1v8.026L.35 14.838a.625.625 0 00.377 1.122h3.04v7.116L.21 26.194a.63.63 0 00-.03.911l1.771 1.771c.23.23.61.242.854.028l.962-.844v2.602a.625.625 0 101.25 0v-3.697l7.203-6.315.759.758a1.87 1.87 0 002.591.057l3.277-3.003a.625.625 0 00-.845-.922l-3.276 3.004a.623.623 0 01-.864-.019l-1.172-1.172a.625.625 0 00-.854-.029L2.421 27.58l-.886-.886 10.358-9.079a.626.626 0 01.853.029l1.154 1.153a.625.625 0 00.864.018l7.114-6.521a.623.623 0 01.864.019l1.827 1.827a.624.624 0 00.86.023l9.679-8.712a.631.631 0 00.024-.906L33.887 3.3h3.864v3.865l-.85-.85a.625.625 0 00-.86-.023l-10.658 9.592a.625.625 0 01-.86-.022l-1.819-1.82a.625.625 0 00-.864-.019l-1.212 1.111a.625.625 0 00.845.921l.77-.706 1.397 1.396a1.874 1.874 0 002.58.068l6.469-5.823c.04.068 4.83 3.722 4.83 3.722H35.71a.625.625 0 00-.624.624V38.7H5.016v-4.04a.625.625 0 00-1.249 0v4.665c0 .345.28.625.625.625H35.71c.345 0 .625-.28.625-.625V15.96h3.04a.625.625 0 00.378-1.122zM4.017 2.716V1.3h8.08v1.416h-8.08zm6.747 1.25v2.971L5.35 11.044V3.966h5.414zm14.27 8.87l-1.409-1.408a1.87 1.87 0 00-2.591-.056l-6.674 6.117-.73-.73a1.879 1.879 0 00-2.56-.085L5.016 21.98v-6.645a.625.625 0 00-.624-.624H2.584L20.05 1.46l9.562 7.254-4.58 4.122z" fill="#fff"/><path d="M20.051 22.707a6.63 6.63 0 00-6.622 6.622 6.63 6.63 0 006.622 6.622 6.63 6.63 0 006.622-6.622 6.63 6.63 0 00-6.622-6.622zm0 11.994a5.379 5.379 0 01-5.372-5.372 5.379 5.379 0 015.372-5.373 5.379 5.379 0 015.373 5.373A5.379 5.379 0 0120.05 34.7z" fill="#FCDB50"/><path d="M21.217 28.704h-.541v-1.749h1.374a.625.625 0 000-1.25h-1.374v-.707a.625.625 0 00-1.25 0v.708h-.541a1.46 1.46 0 00-1.458 1.457v1.333a1.46 1.46 0 001.458 1.458h.541v1.749h-1.374a.625.625 0 000 1.25h1.374v.707a.625.625 0 001.25 0v-.708h.541a1.46 1.46 0 001.458-1.457v-1.333a1.46 1.46 0 00-1.458-1.458zm-1.79 0h-.542a.209.209 0 01-.208-.208v-1.333c0-.115.093-.208.208-.208h.541v1.75zm1.998 2.79a.208.208 0 01-.208.209h-.541v-1.75h.541c.115 0 .208.094.208.209v1.332z" fill="#FCDB50"/></g><defs><clipPath id="clip0"><path fill="#fff" d="M0 0h40v40H0z"/></clipPath></defs></svg>
